X:1
T:Title
%%score { ( 1 3 ) | ( 2 4 5 ) }
L:1/8
Q:1/4=100
M:4/4
K:G
V:1 treble nm="Grand Piano"
V:3 treble 
V:2 treble 
V:4 treble 
V:5 treble 
V:1
 G3 G G3 A | B2 d2 B2 G2 | [GB]3 [GB] [GB]3 [DA] | [DG]2 [FA]2 B4 | G3 G G3 A | B2 d2 B2 G2 | %6
w: E.~O.~Excell * * *||||||
 [GB]3 [GB] [GB]3 A | B2 A2 G4 | c3 c B2 B2 | [EA]2 [EA]2 [DG]2 [DG]2 | [CG]3 [CF] [CE]2 [CF]2 | %11
w: |||||
 D2 D2 D4 | G3 G G3 A | B2 d2 B2 G2 | [GB]3 [GB] [GB]3 A | B2 A2 G4 | d3 B d3 B | [DG]2 A2 B2 G2 | %18
w: |||||||
 d3 d d3 d | d2 ^c2 [Fd]-[F-cd-][F-Bd-][FAd] | G3 G G3 A | B2 d2 B2 G2 | [GB]3 [GB] [GB]3 A | %23
w: |||||
[M:8/4] B2 A2 G4 z8 |] %24
w: |
V:2
 [G,B,D]3 [G,B,D] [G,B,D]3 [G,CD] | [G,DG]2 [G,B,G]2 [G,DG]2[K:bass] [G,B,]2 | %2
 [D,D]3 [D,D] [D,D]3 [D,C] | [D,B,]2 [D,D]2[K:treble] [G,DG]4 | [G,B,D]3 [G,B,D] [G,B,D]3 [G,CD] | %5
 [G,DG]2 [G,B,G]2 [G,DG]2[K:bass] [G,B,]2 | [D,D]3 [D,D] [D,D]3 [D,CD] | %7
 [D,D]2 [D,CD]2[K:treble] [G,B,D]4 | [G,EG]3 [G,EG] [G,DG]2 [G,DG]2 | %9
 [C,C]2 [C,C]2 [B,,G,]2 [B,,G,]2 | [A,,A,]3 [A,,A,] [A,,G,]2 [A,,A,]2 | [D,F,]2 [E,G,]2 [F,A,C]4 | %12
 [G,B,D]3 [G,B,D] [G,B,D]3 [G,CD] | [G,DG]2 [G,B,G]2 [G,DG]2[K:bass] [G,B,]2 | %14
 [D,D]3 [D,D] [D,D]3 [D,CD] | [D,D]2 [D,CD]2[K:treble] [G,B,D]4 | [G,B,G]3 [G,DG] [G,B,G]3 [G,DG] | %17
 [B,,G,]2 [D,F,D]2[K:treble] [G,D]2 [G,B,D]2 | [G,B,G]3 [G,B,G] [G,B,G]3 [B,DG] | %19
 [A,DF]2 [A,EG]2[K:bass] z E z ^C | [G,B,D]3[K:treble] [G,B,D] [G,B,D]3 [G,CD] | %21
 [G,DG]2 [G,B,G]2 [G,DG]2[K:bass] [G,B,]2 | [D,D]3 [D,D] [D,D]3 [D,CD] | %23
[M:8/4] [D,D]2 [D,CD]2 [G,B,D]4 z8 |] %24
V:3
 x8 | x8 | x8 | x8 | x8 | x8 | x8 | x8 | x8 | x8 | x8 | x8 | x8 | x8 | x8 | x8 | x8 | x8 | x8 | %19
 z4 D2 z2 | x8 | x8 | x8 |[M:8/4] x16 |] %24
V:4
 x8 | x6[K:bass] x2 | x8 | x4[K:treble] x4 | x8 | x6[K:bass] x2 | x8 | x4[K:treble] x4 | x8 | x8 | %10
 x8 | x8 | x8 | x6[K:bass] x2 | x8 | x4[K:treble] x4 | x8 | x4[K:treble] x4 | x8 | %19
 z4[K:bass] z2 D2 | x3[K:treble] x5 | x6[K:bass] x2 | x8 |[M:8/4] x16 |] %24
V:5
 x8 | x6[K:bass] x2 | x8 | x4[K:treble] x4 | x8 | x6[K:bass] x2 | x8 | x4[K:treble] x4 | x8 | x8 | %10
 x8 | x8 | x8 | x6[K:bass] x2 | x8 | x4[K:treble] x4 | x8 | x4[K:treble] x4 | x8 | z4[K:bass] D,4 | %20
 x3[K:treble] x5 | x6[K:bass] x2 | x8 |[M:8/4] x16 |] %24

